src/assets/img/createPassword/Password.svg

<svg fill="none" height="40" viewBox="0 0 40 40" width="40" xmlns="http://www.w3.org/2000/svg"><g stroke="#fff" stroke-linecap="round" stroke-linejoin="round" stroke-width="2"><path d="m6.25098 8.74976v22.50004"/><path d="m16.25 14.9996v5"/><path d="m11.499 18.4529 4.75 1.5469"/><path d="m13.3125 24.0472 2.9375-4.0468"/><path d="m19.1875 24.0472-2.9375-4.0468"/><path d="m21 18.4529-4.75 1.5469"/><path d="m31.25 14.9996v5"/><path d="m26.501 18.4529 4.75 1.5469"/><path d="m28.3115 24.0472 2.9375-4.0468"/><path d="m34.1875 24.0472-2.9375-4.0468"/><path d="m36 18.4529-4.75 1.5469"/></g></svg>

<svg width="40" height="40" viewBox="0 0 40 40" fill="none" xmlns="http://www.w3.org/2000/svg">
<path d="M6.25098 8.74976V31.2498" stroke="white" stroke-width="2" stroke-linecap="round" stroke-linejoin="round"/>
<path d="M16.25 14.9996V19.9996" stroke="white" stroke-width="2" stroke-linecap="round" stroke-linejoin="round"/>
<path d="M11.499 18.4529L16.249 19.9998" stroke="white" stroke-width="2" stroke-linecap="round" stroke-linejoin="round"/>
<path d="M13.3125 24.0472L16.25 20.0004" stroke="white" stroke-width="2" stroke-linecap="round" stroke-linejoin="round"/>
<path d="M19.1875 24.0472L16.25 20.0004" stroke="white" stroke-width="2" stroke-linecap="round" stroke-linejoin="round"/>
<path d="M21 18.4529L16.25 19.9998" stroke="white" stroke-width="2" stroke-linecap="round" stroke-linejoin="round"/>
<path d="M31.25 14.9996V19.9996" stroke="white" stroke-width="2" stroke-linecap="round" stroke-linejoin="round"/>
<path d="M26.501 18.4529L31.251 19.9998" stroke="white" stroke-width="2" stroke-linecap="round" stroke-linejoin="round"/>
<path d="M28.3115 24.0472L31.249 20.0004" stroke="white" stroke-width="2" stroke-linecap="round" stroke-linejoin="round"/>
<path d="M34.1875 24.0472L31.25 20.0004" stroke="white" stroke-width="2" stroke-linecap="round" stroke-linejoin="round"/>
<path d="M36 18.4529L31.25 19.9998" stroke="white" stroke-width="2" stroke-linecap="round" stroke-linejoin="round"/>
</svg>
